panels/user-accounts/data/icons/print_error.svg

<?xml version="1.0" encoding="UTF-8" standalone="no"?>
<!-- Generator: Adobe Illustrator 13.0.2, SVG Export Plug-In . SVG Version: 6.00 Build 14948)  -->

<svg
   version="1.0"
   x="0px"
   y="0px"
   width="48"
   height="48"
   viewBox="0 0 48 48"
   enable-background="new 0 0 36.184 43.865"
   xml:space="preserve"
   id="svg2419"
   sodipodi:version="0.32"
   inkscape:version="1.1 (c68e22c387, 2021-05-23)"
   sodipodi:docname="print_error.svg"
   inkscape:output_extension="org.inkscape.output.svg.inkscape"
   inkscape:export-filename="/Users/mlanglie/Desktop/Fingerprint Enrollment Icons/Vector/print_ok.png"
   inkscape:export-xdpi="90"
   inkscape:export-ydpi="90"
   xmlns:inkscape="http://www.inkscape.org/namespaces/inkscape"
   xmlns:sodipodi="http://sodipodi.sourceforge.net/DTD/sodipodi-0.dtd"
   xmlns:xlink="http://www.w3.org/1999/xlink"
   xmlns="http://www.w3.org/2000/svg"
   xmlns:svg="http://www.w3.org/2000/svg"
   xmlns:rdf="http://www.w3.org/1999/02/22-rdf-syntax-ns#"
   xmlns:cc="http://creativecommons.org/ns#"
   xmlns:dc="http://purl.org/dc/elements/1.1/"><metadata
   id="metadata2435"><rdf:RDF><cc:Work
       rdf:about=""><dc:format>image/svg+xml</dc:format><dc:type
         rdf:resource="http://purl.org/dc/dcmitype/StillImage" /></cc:Work></rdf:RDF></metadata><defs
   id="defs2433"><linearGradient
   inkscape:collect="always"
   id="linearGradient84104"><stop
     style="stop-color:#fffffc;stop-opacity:1;"
     offset="0"
     id="stop84106" /><stop
     style="stop-color:#fffffc;stop-opacity:0;"
     offset="1"
     id="stop84108" /></linearGradient><linearGradient
   id="linearGradient84076"><stop
     style="stop-color:#73d216;stop-opacity:1;"
     offset="0"
     id="stop84078" /><stop
     id="stop84090"
     offset="0.31459025"
     style="stop-color:#73d216;stop-opacity:1;" /><stop
     style="stop-color:#4e9a06;stop-opacity:1;"
     offset="1"
     id="stop84080" /></linearGradient><linearGradient
   id="linearGradient3531"><stop
     id="stop3533"
     offset="0"
     style="stop-color:#9b9b9b;stop-opacity:1;" /><stop
     id="stop3535"
     offset="1"
     style="stop-color:#414141;stop-opacity:1;" /></linearGradient><linearGradient
   id="linearGradient3483"><stop
     id="stop3485"
     offset="0"
     style="stop-color:#000000;stop-opacity:1;" /><stop
     id="stop3487"
     offset="1"
     style="stop-color:#787878;stop-opacity:1" /></linearGradient><linearGradient
   id="linearGradient3263"><stop
     id="stop3265"
     offset="0"
     style="stop-color:#ffffff;stop-opacity:1;" /><stop
     id="stop3267"
     offset="1"
     style="stop-color:#ffffff;stop-opacity:0;" /></linearGradient><linearGradient
   id="linearGradient3247"><stop
     style="stop-color:#52a714;stop-opacity:1;"
     offset="0"
     id="stop3249" /><stop
     style="stop-color:#398800;stop-opacity:1;"
     offset="1"
     id="stop3251" /></linearGradient><linearGradient
   id="linearGradient3233"><stop
     id="stop3235"
     offset="0"
     style="stop-color:#398800;stop-opacity:1;" /><stop
     id="stop3237"
     offset="1"
     style="stop-color:#84c706;stop-opacity:1;" /></linearGradient><inkscape:perspective
   sodipodi:type="inkscape:persp3d"
   inkscape:vp_x="0 : 24.000001 : 1"
   inkscape:vp_y="0 : 1094.2665 : 0"
   inkscape:vp_z="47.999997 : 24.000001 : 1"
   inkscape:persp3d-origin="23.999999 : 16 : 1"
   id="perspective2437" />
	
	

		
		
	<linearGradient
   inkscape:collect="always"
   xlink:href="#linearGradient3233"
   id="linearGradient3517"
   gradientUnits="userSpaceOnUse"
   x1="25.144751"
   y1="43.865002"
   x2="25.144751"
   y2="23.838018" /><linearGradient
   inkscape:collect="always"
   xlink:href="#linearGradient3247"
   id="linearGradient3519"
   gradientUnits="userSpaceOnUse"
   x1="30.691881"
   y1="23.365002"
   x2="30.691881"
   y2="44.365963" /><linearGradient
   inkscape:collect="always"
   xlink:href="#linearGradient3263"
   id="linearGradient3521"
   gradientUnits="userSpaceOnUse"
   x1="26.455547"
   y1="24.322035"
   x2="26.455547"
   y2="30.466549" /><linearGradient
   gradientUnits="userSpaceOnUse"
   y2="55.692348"
   x2="18.072493"
   y1="29.205048"
   x1="21.55229"
   id="linearGradient5138"
   xlink:href="#linearGradient5132"
   inkscape:collect="always" /><linearGradient
   id="linearGradient5132"
   inkscape:collect="always"><stop
     id="stop5134"
     offset="0"
     style="stop-color:white;stop-opacity:1;" /><stop
     id="stop5136"
     offset="1"
     style="stop-color:white;stop-opacity:0;" /></linearGradient><linearGradient
   id="linearGradient1913"><stop
     id="stop1915"
     offset="0"
     style="stop-color:#73d216;stop-opacity:1" /><stop
     id="stop1917"
     offset="1"
     style="stop-color:#8ae234;stop-opacity:1" /></linearGradient><inkscape:perspective
   id="perspective84036"
   inkscape:persp3d-origin="31.837276 : 17.508264 : 1"
   inkscape:vp_z="63.674552 : 26.262396 : 1"
   inkscape:vp_y="0 : 1094.2665 : 0"
   inkscape:vp_x="0 : 26.262396 : 1"
   sodipodi:type="inkscape:persp3d" /><radialGradient
   inkscape:collect="always"
   xlink:href="#linearGradient84076"
   id="radialGradient84088"
   cx="26.183998"
   cy="40.111427"
   fx="26.183998"
   fy="40.111427"
   r="10.5"
   gradientUnits="userSpaceOnUse"
   gradientTransform="matrix(0.9228377,7.3282173e-8,-7.9001009e-8,0.8924238,2.0204218,4.4167191)" /><linearGradient
   inkscape:collect="always"
   xlink:href="#linearGradient3263"
   id="linearGradient84092"
   gradientUnits="userSpaceOnUse"
   x1="26.455547"
   y1="24.322035"
   x2="26.455547"
   y2="30.466549" /><linearGradient
   inkscape:collect="always"
   xlink:href="#linearGradient84104"
   id="linearGradient84110"
   x1="28.185518"
   y1="22.649143"
   x2="27.596079"
   y2="42.648415"
   gradientUnits="userSpaceOnUse" /><linearGradient
   inkscape:collect="always"
   xlink:href="#linearGradient3263"
   id="linearGradient84136"
   gradientUnits="userSpaceOnUse"
   x1="26.455547"
   y1="24.322035"
   x2="26.455547"
   y2="30.466549" /><linearGradient
   inkscape:collect="always"
   xlink:href="#linearGradient84104"
   id="linearGradient84138"
   gradientUnits="userSpaceOnUse"
   x1="21.515692"
   y1="23.09075"
   x2="34.488232"
   y2="40.661182" /></defs><sodipodi:namedview
   inkscape:window-height="713"
   inkscape:window-width="1222"
   inkscape:pageshadow="2"
   inkscape:pageopacity="0.0"
   guidetolerance="10.0"
   gridtolerance="10.0"
   objecttolerance="10.0"
   borderopacity="1.0"
   bordercolor="#666666"
   pagecolor="#ffffff"
   id="base"
   showgrid="false"
   inkscape:zoom="4.399364"
   inkscape:cx="39.372624"
   inkscape:cy="7.0437262"
   inkscape:window-x="15"
   inkscape:window-y="165"
   inkscape:current-layer="svg2419"
   inkscape:pagecheckerboard="1"
   scale-x="1"><inkscape:grid
     type="xygrid"
     id="grid141" /></sodipodi:namedview>
<g
   id="Background">
</g>
<g
   id="Guides">
</g>

<path
   id="path5539"
   style="color:#000000;font-style:normal;font-variant:normal;font-weight:normal;font-stretch:normal;font-size:medium;line-height:normal;font-family:sans-serif;font-variant-ligatures:normal;font-variant-position:normal;font-variant-caps:normal;font-variant-numeric:normal;font-variant-alternates:normal;font-variant-east-asian:normal;font-feature-settings:normal;font-variation-settings:normal;text-indent:0;text-align:start;text-decoration:none;text-decoration-line:none;text-decoration-style:solid;text-decoration-color:#000000;letter-spacing:normal;word-spacing:normal;text-transform:none;writing-mode:lr-tb;direction:ltr;text-orientation:mixed;dominant-baseline:auto;baseline-shift:baseline;text-anchor:start;white-space:normal;shape-padding:0;shape-margin:0;inline-size:0;clip-rule:nonzero;display:inline;overflow:visible;visibility:visible;isolation:auto;mix-blend-mode:normal;color-interpolation:sRGB;color-interpolation-filters:linearRGB;solid-color:#000000;solid-opacity:1;vector-effect:none;fill:#77767b;fill-opacity:1;fill-rule:nonzero;stroke:none;stroke-width:4;stroke-linecap:round;stroke-linejoin:round;stroke-miterlimit:4;stroke-dasharray:none;stroke-dashoffset:56;stroke-opacity:1;color-rendering:auto;image-rendering:auto;shape-rendering:auto;text-rendering:auto;enable-background:accumulate;stop-color:#000000"
   d="M 17 3 C 14.597801 2.9754 12.189838 3.5695701 10.023438 4.78125 C 9.0588008 5.3203571 8.7141919 6.5396092 9.2539062 7.5039062 C 9.7929181 8.4662184 11.009253 8.8104972 11.972656 8.2734375 C 15.072136 6.5398576 18.850682 6.5783401 21.914062 8.375 C 24.977422 10.17164 26.855489 13.44858 26.855469 17 L 26.855469 18.144531 L 30.59375 14.40625 C 29.853282 10.472343 27.460146 6.9878752 23.9375 4.921875 C 21.79634 3.6661151 19.40218 3.02456 17 3 z M 6.6015625 8.6601562 C 5.9342787 8.6817588 5.3217766 9.0348999 4.96875 9.6015625 C 3.6381501 11.739923 2.92656 14.200184 2.875 16.714844 L 2.875 16.71875 C 2.8618818 16.81193 2.8553551 16.905907 2.8554688 17 L 2.8554688 27.125 C 2.8554687 28.22957 3.7508992 29.125 4.8554688 29.125 C 5.9600383 29.125 6.8554688 28.22957 6.8554688 27.125 L 6.8554688 17 C 6.8554688 15.13234 7.3804676 13.300543 8.3671875 11.714844 C 8.9496328 10.776384 8.6610739 9.5434505 7.7226562 8.9609375 C 7.3869089 8.7520555 6.9967774 8.6473861 6.6015625 8.6601562 z M 16.855469 9 C 12.59315 9 9.1026114 12.399521 8.8945312 16.613281 C 8.8689856 16.740613 8.8559029 16.870131 8.8554688 17 L 8.8554688 19 C 8.8554687 20.10457 9.7508991 21 10.855469 21 C 11.960039 21 12.855469 20.10457 12.855469 19 L 12.855469 17 C 12.855469 14.76708 14.62267 13 16.855469 13 C 19.088269 13 20.855469 14.76708 20.855469 17 L 20.855469 24.144531 L 24.855469 20.144531 L 24.855469 17 C 24.855807 16.866215 24.842716 16.732734 24.816406 16.601562 C 24.602303 12.393262 21.113809 9 16.855469 9 z M 16.855469 15 C 15.750899 15 14.855469 15.89543 14.855469 17 L 14.855469 27 C 14.855469 27 14.854269 28.189485 15.144531 29.640625 C 15.155923 29.69758 15.171406 29.758266 15.183594 29.816406 L 18.855469 26.144531 L 18.855469 17 C 18.855469 15.89543 17.960039 15 16.855469 15 z M 10.855469 23 C 9.7508992 23 8.8554686 23.89543 8.8554688 25 L 8.8554688 31 C 8.8554687 32.10457 9.7508992 33 10.855469 33 C 11.960039 33 12.855469 32.10457 12.855469 31 L 12.855469 25 C 12.855469 23.89543 11.960039 23 10.855469 23 z " /><g
   inkscape:label="about info dialog details"
   id="g2256"
   style="display:inline;enable-background:new;fill:#ed333b;fill-opacity:1"
   transform="matrix(1.5,0,0,-1.5,6.1486187,1050.0069)"><title
     id="title2237">info</title><g
     id="g2254"
     transform="translate(2.0000038,-0.03344727)"
     style="fill:#ed333b;fill-opacity:1" /><path
     id="path2246"
     style="display:inline;fill:#ed333b;fill-opacity:1;stroke-width:1.5;stroke-linecap:square;stroke-linejoin:round;enable-background:new"
     d="m 19.793777,668.00466 c -4.376772,0 -7.893249,3.62323 -7.892857,8 1e-6,4.41828 3.581722,8 8,8 4.418278,0 7.999999,-3.58172 8,-8 -1e-6,-4.41828 -3.581722,-8 -8,-8 -0.0357,-2.4e-4 -0.07139,0 -0.107086,0 z m -0.560283,3.34612 h 1.334852 c 0.369755,0 0.667427,0.29768 0.667427,0.66743 v 1.33485 c 0,0.36976 -0.297672,0.66743 -0.667427,0.66743 h -1.334852 c -0.369755,0 -0.667427,-0.29767 -0.667427,-0.66743 v -1.33485 c 0,-0.36975 0.297672,-0.66743 0.667427,-0.66743 z m -0.665906,3.98715 h 2.666666 l 0,6 h -2.666666 z"
     sodipodi:nodetypes="scsscsssssssssssccccc" /></g><path
   style="fill:none;stroke:#77767b;stroke-width:1px;stroke-linecap:butt;stroke-linejoin:miter;stroke-opacity:1"
   d="M 9,36 34,11"
   id="path86" /></svg>

<svg version="1.0" width="48" height="48" xml:space="preserve" xmlns="http://www.w3.org/2000/svg"><defs><linearGradient id="f"><stop style="stop-color:#fffffc;stop-opacity:1" offset="0"/><stop style="stop-color:#fffffc;stop-opacity:0" offset="1"/></linearGradient><linearGradient id="e"><stop style="stop-color:#73d216;stop-opacity:1" offset="0"/><stop offset=".315" style="stop-color:#73d216;stop-opacity:1"/><stop style="stop-color:#4e9a06;stop-opacity:1" offset="1"/></linearGradient><linearGradient id="c"><stop offset="0" style="stop-color:#fff;stop-opacity:1"/><stop offset="1" style="stop-color:#fff;stop-opacity:0"/></linearGradient><linearGradient id="b"><stop style="stop-color:#52a714;stop-opacity:1" offset="0"/><stop style="stop-color:#398800;stop-opacity:1" offset="1"/></linearGradient><linearGradient id="a"><stop offset="0" style="stop-color:#398800;stop-opacity:1"/><stop offset="1" style="stop-color:#84c706;stop-opacity:1"/></linearGradient><linearGradient id="d"><stop offset="0" style="stop-color:white;stop-opacity:1"/><stop offset="1" style="stop-color:white;stop-opacity:0"/></linearGradient></defs><path style="color:#000;font-style:normal;font-variant:normal;font-weight:400;font-stretch:normal;font-size:medium;line-height:normal;font-family:sans-serif;font-variant-ligatures:normal;font-variant-position:normal;font-variant-caps:normal;font-variant-numeric:normal;font-variant-alternates:normal;font-variant-east-asian:normal;font-feature-settings:normal;font-variation-settings:normal;text-indent:0;text-align:start;text-decoration:none;text-decoration-line:none;text-decoration-style:solid;text-decoration-color:#000;letter-spacing:normal;word-spacing:normal;text-transform:none;writing-mode:lr-tb;direction:ltr;text-orientation:mixed;dominant-baseline:auto;baseline-shift:baseline;text-anchor:start;white-space:normal;shape-padding:0;shape-margin:0;inline-size:0;clip-rule:nonzero;display:inline;overflow:visible;visibility:visible;isolation:auto;mix-blend-mode:normal;color-interpolation:sRGB;color-interpolation-filters:linearRGB;solid-color:#000;solid-opacity:1;vector-effect:none;fill:#77767b;fill-opacity:1;fill-rule:nonzero;stroke:none;stroke-width:4;stroke-linecap:round;stroke-linejoin:round;stroke-miterlimit:4;stroke-dasharray:none;stroke-dashoffset:56;stroke-opacity:1;color-rendering:auto;image-rendering:auto;shape-rendering:auto;text-rendering:auto;enable-background:accumulate;stop-color:#000" d="M17 3c-2.402-.025-4.81.57-6.977 1.781a2 2 0 0 0 1.95 3.492 9.994 9.994 0 0 1 9.941.102A9.991 9.991 0 0 1 26.855 17v1.145l3.739-3.739a13.986 13.986 0 0 0-6.657-9.484A13.986 13.986 0 0 0 17 3zM6.602 8.66a2 2 0 0 0-1.633.942 13.997 13.997 0 0 0-2.094 7.113v.004a2 2 0 0 0-.02.281v10.125a2 2 0 1 0 4 0V17c0-1.868.525-3.7 1.512-5.285A2 2 0 0 0 6.602 8.66zM16.855 9c-4.262 0-7.752 3.4-7.96 7.613a2 2 0 0 0-.04.387v2a2 2 0 1 0 4 0v-2c0-2.233 1.768-4 4-4 2.233 0 4 1.767 4 4v7.145l4-4V17a2 2 0 0 0-.039-.398C24.602 12.393 21.114 9 16.856 9zm0 6a2 2 0 0 0-2 2v10s0 1.19.29 2.64c.01.058.026.118.039.176l3.671-3.671V17a2 2 0 0 0-2-2zm-6 8a2 2 0 0 0-2 2v6a2 2 0 1 0 4 0v-6a2 2 0 0 0-2-2z"/><g style="display:inline;enable-background:new;fill:#ed333b;fill-opacity:1" transform="matrix(1.5 0 0 -1.5 6.149 1050.007)"><path style="display:inline;fill:#ed333b;fill-opacity:1;stroke-width:1.5;stroke-linecap:square;stroke-linejoin:round;enable-background:new" d="M19.794 668.005c-4.377 0-7.893 3.623-7.893 8a8 8 0 1 0 8-8h-.107zm-.56 3.346h1.334c.37 0 .668.297.668.667v1.335c0 .37-.298.667-.668.667h-1.335a.666.666 0 0 1-.667-.667v-1.335c0-.37.298-.667.667-.667zm-.666 3.987h2.666v6h-2.666z"/></g><path style="fill:none;stroke:#77767b;stroke-width:1px;stroke-linecap:butt;stroke-linejoin:miter;stroke-opacity:1" d="m9 36 25-25"/></svg>
